client/public/img/game/fall/obstacles/clearing_boulder_1.svg

<?xml version="1.0" encoding="UTF-8" standalone="no"?>
<!-- Created with Inkscape (http://www.inkscape.org/) -->

<svg
   width="333.55704"
   height="334.76025"
   viewBox="0 0 88.253635 88.571987"
   version="1.1"
   id="svg5"
   xmlns="http://www.w3.org/2000/svg"
   xmlns:svg="http://www.w3.org/2000/svg">
  <defs
     id="defs2" />
  <path
     style="color:#000000;fill:#5a5a5a;stroke-linecap:round;stroke-linejoin:round;-inkscape-stroke:none"
     d="M 5.3205856,65.774935 1.9849796,37.164217 11.186865,11.99903 35.330691,1.9846342 l 24.93405,2.71579 21.579987,13.8639828 4.44462,21.029429 -3.15123,22.5064 -7.937213,17.188519 -13.570013,7.29925 -29.27359,-0.581721 -15.581341,-6.103089 z"
     id="path1" />
  <path
     id="path2153"
     style="fill:#4b4b4b;fill-opacity:1;stroke:none;stroke-width:3.70417;stroke-linecap:round;stroke-linejoin:round;stroke-dasharray:none;stroke-opacity:1;paint-order:normal"
     d="m 14.611134,60.845898 -9.4010304,3.909261 11.7188594,14.512925 16.140322,6.959594 29.189169,-0.0053 13.161368,-7.374407 7.718296,-16.747733 -16.748843,6.720387 -20.636886,-7.263931 z" />
  <path
     style="opacity:0.8;fill:#2c3d18;fill-opacity:1;stroke:none;stroke-width:5.15849;stroke-linecap:round;stroke-linejoin:round;stroke-opacity:1"
     d="m 14.509962,79.356274 16.864746,7.31077 36.127481,-2.0179 c -0.48582,-2.331735 1.189647,-0.457111 -0.571297,-2.273578 -2.412489,-2.488558 -5.551464,-1.458326 -8.117513,-2.78181 -2.739928,-1.413163 -5.287178,-5.661991 -8.509423,-6.136828 -3.466258,-0.510795 -7.123197,1.89344 -10.474969,1.029074 -3.117543,-0.803961 -6.420098,-5.369419 -9.311085,-6.860494 -7.243072,-3.735735 -2.945511,5.52929 -5.320619,6.345957 -6.861137,2.359164 -6.578855,0.166358 -10.687321,5.384809 z"
     id="path3-9" />
  <path
     id="path2570"
     style="fill:#676767;fill-opacity:1;stroke:none;stroke-width:3.70417;stroke-linecap:round;stroke-linejoin:round;stroke-dasharray:none;stroke-opacity:1;paint-order:normal"
     d="M 59.989196,5.4259036 35.372345,2.5339792 11.492405,11.801077 25.525285,28.374187 46.834052,27.84202 64.5343,37.121585 86.289348,39.593836 81.844728,18.564407 Z" />
  <path
     style="opacity:0.8;fill:#2c3d18;fill-opacity:1;stroke:none;stroke-width:4.75589;stroke-linecap:round;stroke-linejoin:round"
     d="M 1.7460419,40.440312 11.392835,9.9882484 25.859028,3.9879474 c 6.97027,2.628079 -0.0031,5.710596 -0.0031,8.9031336 0,2.753206 3.45355,3.68933 1.556909,6.850398 -1.824789,3.041315 -6.717232,1.558888 -7.317472,5.760563 -0.87975,6.158251 6.4337,12.317893 -1.245526,17.437378 C 11.750003,47.672631 7.0387423,40.440312 1.7460579,40.440312 Z"
     id="path4-3" />
  <rect
     style="fill:#000000;fill-opacity:0;stroke:none;stroke-width:3.70417;stroke-linecap:round;stroke-linejoin:miter;stroke-dasharray:none;stroke-opacity:1;paint-order:normal"
     id="rect2804"
     width="46.302086"
     height="46.302086"
     x="0.53196573"
     y="0.26951355" />
  <path
     style="fill:#2c3d18;fill-opacity:1;stroke:none;stroke-width:3.96875;stroke-linecap:round;stroke-linejoin:round"
     d="M 1.9849796,37.164217 11.186865,11.99903 23.258778,6.9918321 c 5.81663,2.1931081 -0.0026,4.7654419 -0.0026,7.4295869 0,2.297527 2.881957,3.078714 1.299227,5.716598 -1.522771,2.537951 -5.605472,1.300879 -6.106367,4.80714 -0.734144,5.139007 5.368867,10.279175 -1.039381,14.551341 C 11.484905,43.446322 6.2539846,36.031596 1.9849796,37.164217 Z"
     id="path4" />
  <path
     style="opacity:1;fill:#2c3d18;stroke-width:3.96875;stroke-linecap:round;stroke-linejoin:round;fill-opacity:1"
     d="m 60.275387,5.072681 20.589116,12.532506 4.475895,15.964026 C 81.926586,33.753305 80.045953,31.600631 77.134591,30.436086 72.25865,28.48571 68.684603,31.656765 63.557709,29.093318 57.292557,25.960742 60.872172,15.704077 60.872172,10.592952 c 0,-1.0581611 -3.356776,-3.6554596 -2.088751,-4.923485 0.844761,-0.8447603 0.258744,-0.4426333 1.491966,-0.596786 z"
     id="path7" />
  <path
     style="opacity:0.8;fill:#2c3d18;fill-opacity:1;stroke-width:4.79423;stroke-linecap:round;stroke-linejoin:round"
     d="m 55.404043,2.6818135 25.96761,14.5001965 5.645133,18.470489 c -4.305602,0.212996 -6.677513,-2.277663 -10.34941,-3.62505 -6.149683,-2.256598 -10.657378,1.412334 -17.12357,-1.553592 -7.901798,-3.624412 -3.38708,-15.491445 -3.38708,-21.4050521 0,-1.2242997 -4.233667,-4.2293921 -2.634396,-5.6965059 1.065438,-0.9773943 0.326336,-0.5121306 1.881713,-0.6904855 z"
     id="path7-2" />
  <path
     style="fill:#2c3d18;stroke:none;stroke-width:3.96875;stroke-linecap:round;stroke-linejoin:round;fill-opacity:1;stroke-opacity:1"
     d="m 16.775961,79.903195 15.581341,6.103088 29.27359,0.581722 c -0.379619,-1.766328 -0.230609,-3.36071 -1.606609,-4.73671 -1.885116,-1.885116 -5.270563,-0.426595 -7.275671,-1.429149 -2.140976,-1.070488 -3.198739,-4.967136 -5.716598,-5.326831 -2.70853,-0.386933 -5.566058,1.434304 -8.185129,0.779536 -2.436044,-0.60901 -5.016657,-4.0674 -7.275671,-5.196907 -5.659728,-2.829864 -2.301619,4.188504 -4.157526,4.807139 -5.361285,1.787095 -7.427377,0.465073 -10.637727,4.418112 z"
     id="path3" />
  <path
     style="color:#000000;fill:#212121;fill-opacity:1;stroke-linecap:round;stroke-linejoin:round;-inkscape-stroke:none"
     d="m 35.544649,0.01143639 a 1.9845736,1.9845736 0 0 0 -0.974609,0.140625 L 10.427462,10.165733 A 1.9845736,1.9845736 0 0 0 9.3239461,11.318077 L 0.12082148,36.48214 a 1.9845736,1.9845736 0 0 0 -0.1074219,0.912109 L 3.3493371,66.005577 a 1.9845736,1.9845736 0 0 0 0.4296875,1.019531 L 15.234103,81.152061 a 1.9845736,1.9845736 0 0 0 0.818359,0.59961 l 15.582031,6.101562 a 1.9845736,1.9845736 0 0 0 0.683594,0.136719 l 29.273437,0.582031 a 1.9845736,1.9845736 0 0 0 0.978516,-0.236328 l 13.570313,-7.298828 a 1.9845736,1.9845736 0 0 0 0.861328,-0.916016 l 7.9375,-17.189453 a 1.9845736,1.9845736 0 0 0 0.164062,-0.55664 l 3.150391,-22.50586 a 1.9845736,1.9845736 0 0 0 -0.02344,-0.685547 L 83.786837,18.154015 A 1.9845736,1.9845736 0 0 0 82.917696,16.894249 L 61.337618,3.0309676 A 1.9845736,1.9845736 0 0 0 60.480196,2.7282333 Z M 35.620819,4.0114364 59.585665,6.6227645 80.073946,19.784874 84.275118,39.66378 81.212618,61.534874 73.677462,77.855186 61.150118,84.593468 32.751681,84.029015 17.988009,78.245811 7.2243371,64.972374 4.0114465,37.402061 12.751681,13.497765 Z"
     id="path2" />
</svg>

<svg xmlns="http://www.w3.org/2000/svg" width="333.557" height="334.76" viewBox="0 0 88.254 88.572"><path d="m5.32 65.775-3.335-28.61 9.202-25.166L35.33 1.985 60.265 4.7l21.58 13.864 4.444 21.03L83.14 62.1 75.2 79.29l-13.57 7.299-29.274-.582-15.581-6.103z" style="color:#000;fill:#5a5a5a;stroke-linecap:round;stroke-linejoin:round;-inkscape-stroke:none"/><path d="m14.611 60.846-9.4 3.91 11.718 14.512 16.14 6.96 29.19-.006 13.16-7.374L83.14 62.1l-16.75 6.72-20.637-7.263z" style="fill:#4b4b4b;fill-opacity:1;stroke:none;stroke-width:3.70417;stroke-linecap:round;stroke-linejoin:round;stroke-dasharray:none;stroke-opacity:1;paint-order:normal"/><path d="m14.51 79.356 16.865 7.311 36.127-2.018c-.486-2.332 1.19-.457-.571-2.273-2.413-2.489-5.552-1.459-8.118-2.782-2.74-1.413-5.287-5.662-8.509-6.137-3.466-.51-7.123 1.893-10.475 1.029-3.118-.804-6.42-5.37-9.311-6.86-7.243-3.736-2.946 5.529-5.32 6.345-6.862 2.36-6.58.167-10.688 5.385" style="opacity:.8;fill:#2c3d18;fill-opacity:1;stroke:none;stroke-width:5.15849;stroke-linecap:round;stroke-linejoin:round;stroke-opacity:1"/><path d="M59.99 5.426 35.371 2.534l-23.88 9.267 14.033 16.573 21.31-.532 17.7 9.28 21.754 2.472-4.444-21.03Z" style="fill:#676767;fill-opacity:1;stroke:none;stroke-width:3.70417;stroke-linecap:round;stroke-linejoin:round;stroke-dasharray:none;stroke-opacity:1;paint-order:normal"/><path d="m1.746 40.44 9.647-30.452 14.466-6c6.97 2.628-.003 5.71-.003 8.903 0 2.753 3.453 3.69 1.557 6.85-1.825 3.042-6.717 1.56-7.318 5.761-.88 6.158 6.434 12.318-1.245 17.437-7.1 4.734-11.811-2.499-17.104-2.499" style="opacity:.8;fill:#2c3d18;fill-opacity:1;stroke:none;stroke-width:4.75589;stroke-linecap:round;stroke-linejoin:round"/><path fill="none" d="M.532.27h46.302v46.302H.532z" style="fill:#000;fill-opacity:0;stroke:none;stroke-width:3.70417;stroke-linecap:round;stroke-linejoin:miter;stroke-dasharray:none;stroke-opacity:1;paint-order:normal"/><path d="M1.985 37.164 11.187 12l12.072-5.007c5.816 2.193-.003 4.765-.003 7.43 0 2.297 2.882 3.078 1.3 5.716-1.523 2.538-5.606 1.3-6.107 4.807-.734 5.14 5.369 10.28-1.04 14.551-5.924 3.95-11.155-3.464-15.424-2.332" style="fill:#2c3d18;fill-opacity:1;stroke:none;stroke-width:3.96875;stroke-linecap:round;stroke-linejoin:round"/><path d="m60.275 5.073 20.59 12.532L85.34 33.57c-3.413.184-5.294-1.968-8.205-3.133-4.876-1.95-8.45 1.22-13.577-1.343-6.265-3.132-2.686-13.389-2.686-18.5 0-1.058-3.357-3.656-2.089-4.924.845-.844.26-.442 1.492-.596" style="opacity:1;fill:#2c3d18;stroke-width:3.96875;stroke-linecap:round;stroke-linejoin:round;fill-opacity:1"/><path d="m55.404 2.682 25.968 14.5 5.645 18.47c-4.306.213-6.678-2.277-10.35-3.625-6.15-2.256-10.657 1.413-17.123-1.553-7.902-3.625-3.387-15.492-3.387-21.405 0-1.224-4.234-4.23-2.635-5.697 1.066-.977.327-.512 1.882-.69" style="opacity:.8;fill:#2c3d18;fill-opacity:1;stroke-width:4.79423;stroke-linecap:round;stroke-linejoin:round"/><path d="m16.776 79.903 15.581 6.103 29.274.582c-.38-1.766-.23-3.36-1.607-4.737-1.885-1.885-5.27-.426-7.275-1.429-2.141-1.07-3.2-4.967-5.717-5.327-2.709-.387-5.566 1.435-8.185.78-2.436-.61-5.017-4.068-7.276-5.197-5.66-2.83-2.301 4.188-4.157 4.807-5.362 1.787-7.428.465-10.638 4.418" style="fill:#2c3d18;stroke:none;stroke-width:3.96875;stroke-linecap:round;stroke-linejoin:round;fill-opacity:1;stroke-opacity:1"/><path d="M35.545.011a2 2 0 0 0-.975.141L10.427 10.166a1.99 1.99 0 0 0-1.103 1.152L.12 36.482a2 2 0 0 0-.108.912L3.35 66.006a2 2 0 0 0 .43 1.02l11.455 14.126a2 2 0 0 0 .818.6l15.582 6.101a2 2 0 0 0 .684.137l29.274.582a2 2 0 0 0 .978-.236l13.57-7.3a2 2 0 0 0 .862-.915l7.937-17.19a2 2 0 0 0 .164-.556l3.15-22.506a2 2 0 0 0-.023-.686l-4.443-21.029a1.99 1.99 0 0 0-.87-1.26L61.338 3.031a2 2 0 0 0-.857-.303Zm.076 4 23.965 2.612 20.488 13.162 4.201 19.879-3.062 21.87-7.536 16.321-12.527 6.738-28.398-.564-14.764-5.783L7.224 64.972l-3.213-27.57 8.74-23.904Z" style="color:#000;fill:#212121;fill-opacity:1;stroke-linecap:round;stroke-linejoin:round;-inkscape-stroke:none"/></svg>
